X:95
T: Sej, felszálott a kakas...
O: Békésgyula (Békés), Illés Panna (18), 1906
Q: "Tempo guisto" 1/4=104
M:4/4
L:1/4
K:C
d d/c/ B<G | e<d d<c | G2 G z | 
g a g d | d c f<e | d2 d z |
g a g d | d c f<e | d2 g z |
d d/c/ B G | e<d d c | G2 G z | 